icons/calendar-fill.svg

<svg viewBox="0 0 24 24" fill="currentColor" xmlns="http://www.w3.org/2000/svg"><path d="M2 11H22V20C22 20.5523 21.5523 21 21 21H3C2.44772 21 2 20.5523 2 20V11ZM17 3H21C21.5523 3 22 3.44772 22 4V9H2V4C2 3.44772 2.44772 3 3 3H7V1H9V3H15V1H17V3Z"/></svg>

<svg xmlns="http://www.w3.org/2000/svg" viewBox="0 0 24 24">
    <g>
        <path fill="none" d="M0 0h24v24H0z"/>
        <path d="M2 11h20v9a1 1 0 0 1-1 1H3a1 1 0 0 1-1-1v-9zm15-8h4a1 1 0 0 1 1 1v5H2V4a1 1 0 0 1 1-1h4V1h2v2h6V1h2v2z"/>
    </g>
</svg>
